src/assets/flags/au.svg

<?xml version="1.0" encoding="UTF-8"?>
<svg xmlns="http://www.w3.org/2000/svg" xmlns:xlink="http://www.w3.org/1999/xlink" width="25px" height="px" viewBox="0 0 25 19" version="1.1">
<g id="surface1">
<rect x="0" y="0" width="25" height="19" style="fill:rgb(0%,0%,54.509807%);fill-opacity:1;stroke:none;"/>
<path style=" stroke:none;fill-rule:nonzero;fill:rgb(100%,100%,100%);fill-opacity:1;" d="M 1.464844 0 L 6.230469 3.582031 L 10.976562 0 L 12.5 0 L 12.5 1.226562 L 7.8125 4.769531 L 12.5 8.292969 L 12.5 9.5 L 10.9375 9.5 L 6.25 5.957031 L 1.582031 9.5 L 0 9.5 L 0 8.3125 L 4.667969 4.789062 L 0 1.265625 L 0 0 Z M 1.464844 0 "/>
<path style=" stroke:none;fill-rule:nonzero;fill:rgb(100%,0%,0%);fill-opacity:1;" d="M 8.28125 5.5625 L 12.5 8.707031 L 12.5 9.5 L 7.207031 5.5625 Z M 4.6875 5.957031 L 4.804688 6.648438 L 1.054688 9.5 L 0 9.5 Z M 12.5 0 L 12.5 0.0585938 L 7.636719 3.78125 L 7.675781 2.910156 L 11.523438 0 Z M 0 0 L 4.667969 3.484375 L 3.496094 3.484375 L 0 0.832031 Z M 0 0 "/>
<path style=" stroke:none;fill-rule:nonzero;fill:rgb(100%,100%,100%);fill-opacity:1;" d="M 4.707031 0 L 4.707031 9.5 L 7.832031 9.5 L 7.832031 0 Z M 0 3.167969 L 0 6.332031 L 12.5 6.332031 L 12.5 3.167969 Z M 0 3.167969 "/>
<path style=" stroke:none;fill-rule:nonzero;fill:rgb(100%,0%,0%);fill-opacity:1;" d="M 0 3.820312 L 0 5.71875 L 12.5 5.71875 L 12.5 3.820312 Z M 5.332031 0 L 5.332031 9.5 L 7.207031 9.5 L 7.207031 0 Z M 5.332031 0 "/>
<path style=" stroke:none;fill-rule:nonzero;fill:rgb(100%,100%,100%);fill-opacity:1;" d="M 20.585938 15.703125 L 19.785156 15.804688 L 19.871094 16.617188 L 19.292969 16.046875 L 18.71875 16.621094 L 18.796875 15.808594 L 17.996094 15.714844 L 18.671875 15.269531 L 18.246094 14.578125 L 19.011719 14.835938 L 19.28125 14.0625 L 19.558594 14.832031 L 20.320312 14.566406 L 19.902344 15.261719 Z M 20.441406 11.0625 L 20.546875 10.550781 L 20.164062 10.191406 L 20.679688 10.132812 L 20.894531 9.65625 L 21.109375 10.132812 L 21.625 10.191406 L 21.242188 10.550781 L 21.347656 11.0625 L 20.894531 10.800781 Z M 16.375 8.6875 L 15.582031 8.777344 L 15.652344 9.578125 L 15.089844 9.003906 L 14.511719 9.5625 L 14.605469 8.761719 L 13.816406 8.652344 L 14.492188 8.226562 L 14.082031 7.53125 L 14.835938 7.800781 L 15.117188 7.046875 L 15.378906 7.808594 L 16.136719 7.558594 L 15.710938 8.246094 L 16.378906 8.6875 Z M 24.335938 7.390625 L 23.519531 7.496094 L 23.609375 8.324219 L 23.019531 7.742188 L 22.433594 8.328125 L 22.515625 7.496094 L 21.699219 7.402344 L 22.390625 6.945312 L 21.957031 6.238281 L 22.738281 6.503906 L 23.011719 5.71875 L 23.292969 6.503906 L 24.070312 6.230469 L 23.640625 6.941406 Z M 20.582031 4.085938 L 19.773438 4.175781 L 19.847656 5 L 19.273438 4.414062 L 18.683594 4.984375 L 18.777344 4.164062 L 17.96875 4.054688 L 18.660156 3.617188 L 18.242188 2.910156 L 19.011719 3.183594 L 19.296875 2.410156 L 19.5625 3.191406 L 20.335938 2.933594 L 19.902344 3.628906 Z M 9.140625 15.265625 L 7.351562 15.480469 L 7.53125 17.296875 L 6.25 16.015625 L 4.960938 17.289062 L 5.152344 15.472656 L 3.363281 15.242188 L 4.882812 14.261719 L 3.945312 12.703125 L 5.648438 13.296875 L 6.265625 11.578125 L 6.871094 13.300781 L 8.578125 12.71875 L 7.628906 14.269531 L 9.144531 15.261719 Z M 9.140625 15.265625 "/>
</g>
</svg>

<svg xmlns="http://www.w3.org/2000/svg" width="25" height="px" viewBox="0 0 25 19"><path d="M0 0h25v19H0z" style="fill:#00008b;fill-opacity:1;stroke:none"/><path d="M1.465 0 6.23 3.582 10.977 0H12.5v1.227L7.813 4.77 12.5 8.293V9.5h-1.562L6.25 5.957 1.582 9.5H0V8.313l4.668-3.524L0 1.266V0Zm0 0" style="stroke:none;fill-rule:nonzero;fill:#fff;fill-opacity:1"/><path d="M8.281 5.563 12.5 8.707V9.5L7.207 5.563Zm-3.594.394.118.691L1.055 9.5H0ZM12.5 0v.059L7.637 3.78l.039-.87L11.523 0ZM0 0l4.668 3.484H3.496L0 .832Zm0 0" style="stroke:none;fill-rule:nonzero;fill:red;fill-opacity:1"/><path d="M4.707 0v9.5h3.125V0ZM0 3.168v3.164h12.5V3.168Zm0 0" style="stroke:none;fill-rule:nonzero;fill:#fff;fill-opacity:1"/><path d="M0 3.82V5.72h12.5V3.82ZM5.332 0v9.5h1.875V0Zm0 0" style="stroke:none;fill-rule:nonzero;fill:red;fill-opacity:1"/><path d="m20.586 15.703-.8.102.085.812-.578-.57-.574.574.078-.812-.8-.094.675-.445-.426-.692.766.258.27-.774.277.77.761-.266-.418.696Zm-.145-4.64.106-.512-.383-.36.516-.058.215-.477.214.477.516.058-.383.36.106.511-.453-.261Zm-4.066-2.376-.793.09.07.801-.562-.574-.578.559.093-.801-.789-.11.676-.425-.41-.696.754.27.281-.754.262.762.758-.25-.426.687.668.441Zm7.96-1.296-.815.105.09.828-.59-.582-.586.586.082-.832-.817-.094.692-.457-.434-.707.781.266.274-.785.281.785.777-.274-.43.711Zm-3.753-3.305-.809.09.075.824-.575-.586-.59.57.094-.82-.808-.11.691-.437-.418-.707.77.274.285-.774.265.781.774-.257-.434.695ZM9.141 15.266l-1.79.214.18 1.817-1.281-1.281-1.29 1.273.192-1.816-1.789-.23 1.52-.981-.938-1.559 1.703.594.618-1.719.605 1.723 1.707-.582-.95 1.55 1.517.993Zm0 0" style="stroke:none;fill-rule:nonzero;fill:#fff;fill-opacity:1"/></svg>
